P3
100 50
255
25 23 23
25 23 23
25 23 23
25 23 23
25 23 23
25 23 23
25 23 23
25 23 23
25 23 23
25 23 23
25 23 23
25 23 23
25 23 23
25 23 23
25 23 23
25 23 23
25 23 23
25 23 23
25 23 23
25 23 23
25 23 23
25 23 23
25 23 23
25 23 23
25 23 23
25 23 23
25 23 23
25 23 23
25 23 23
25 23 23
25 23 23
25 23 23
25 23 23
25 23 23
25 23 23
25 23 23
25 23 23
25 23 23
25 23 23
25 23 23
25 23 23
25 23 23
25 23 23
25 23 23
25 23 23
25 23 23
25 23 23
25 23 23
25 23 23
25 23 23
25 23 23
25 23 23
25 23 23
25 23 23
25 23 23
25 23 23
25 23 23
25 23 23
25 23 23
25 23 23
25 23 23
25 23 23
25 23 23
25 23 23
25 23 23
25 23 23
25 23 23
25 23 23
25 23 23
25 23 23
25 23 23
25 23 23
25 23 23
25 23 23
25 23 23
25 23 23
25 23 23
25 23 23
25 23 23
25 23 23
25 23 23
25 23 23
25 23 23
25 23 23
25 23 23
25 23 23
25 23 23
25 23 23
25 23 23
25 23 23
25 23 23
25 23 23
25 23 23
25 23 23
25 23 23
25 23 23
25 23 23
25 23 23
25 23 23
25 23 23
25 23 23
25 23 23
25 23 23
25 23 23
25 23 23
25 23 23
25 23 23
25 23 23
25 23 23
25 23 23
25 23 23
25 23 23
25 23 23
25 23 23
25 23 23
25 23 23
25 23 23
25 23 23
25 23 23
25 23 23
25 23 23
25 23 23
25 23 23
25 23 23
25 23 23
25 23 23
25 23 23
25 23 23
25 23 23
25 23 23
25 23 23
25 23 23
25 23 23
25 23 23
25 23 23
25 23 23
25 23 23
25 23 23
25 23 23
25 23 23
25 23 23
25 23 23
25 23 23
25 23 23
25 23 23
25 23 23
25 23 23
25 23 23
25 23 23
25 23 23
25 23 23
25 23 23
25 23 23
25 23 23
25 23 23
25 23 23
25 23 23
25 23 23
25 23 23
25 23 23
25 23 23
25 23 23
25 23 23
25 23 23
25 23 23
25 23 23
25 23 23
25 23 23
25 23 23
25 23 23
25 23 23
25 23 23
25 23 23
25 23 23
25 23 23
25 23 23
25 23 23
25 23 23
25 23 23
25 23 23
25 23 23
25 23 23
25 23 23
25 23 23
25 23 23
25 23 23
25 23 23
25 23 23
25 23 23
25 23 23
25 23 23
25 23 23
25 23 23
25 23 23
25 23 23
25 23 23
25 23 23
25 23 23
25 23 23
25 23 23
25 23 23
25 23 23
25 23 23
25 23 23
25 23 23
25 23 23
25 23 23
25 23 23
25 23 23
25 23 23
25 23 23
25 23 23
25 23 23
25 23 23
25 23 23
25 23 23
25 23 23
25 23 23
25 23 23
25 23 23
25 23 23
25 23 23
25 23 23
25 23 23
25 23 23
25 23 23
25 23 23
25 23 23
25 23 23
25 23 23
25 23 23
25 23 23
25 23 23
25 23 23
25 23 23
25 23 23
25 23 23
25 23 23
25 23 23
25 23 23
25 23 23
25 23 23
25 23 23
25 23 23
25 23 23
25 23 23
25 23 23
25 23 23
25 23 23
25 23 23
25 23 23
25 23 23
25 23 23
25 23 23
25 23 23
25 23 23
25 23 23
25 23 23
25 23 23
25 23 23
25 23 23
25 23 23
25 23 23
25 23 23
25 23 23
25 23 23
25 23 23
25 23 23
25 23 23
25 23 23
25 23 23
25 23 23
25 23 23
25 23 23
25 23 23
25 23 23
25 23 23
25 23 23
25 23 23
25 23 23
25 23 23
25 23 23
25 23 23
25 23 23
25 23 23
25 23 23
25 23 23
25 23 23
25 23 23
25 23 23
25 23 23
25 23 23
25 23 23
25 23 23
25 23 23
25 23 23
25 23 23
25 23 23
25 23 23
25 23 23
25 23 23
25 23 23
25 23 23
25 23 23
25 23 23
25 23 23
25 23 23
25 23 23
25 23 23
25 23 23
25 23 23
25 23 23
25 23 23
25 23 23
25 23 23
25 23 23
25 23 23
25 23 23
25 23 23
25 23 23
25 23 23
25 23 23
25 23 23
25 23 23
25 23 23
25 23 23
25 23 23
25 23 23
25 23 23
25 23 23
25 23 23
25 23 23
25 23 23
25 23 23
25 23 23
25 23 23
25 23 23
25 23 23
25 23 23
25 23 23
25 23 23
25 23 23
25 23 23
25 23 23
25 23 23
25 23 23
25 23 23
25 23 23
25 23 23
25 23 23
25 23 23
25 23 23
25 23 23
25 23 23
25 23 23
25 23 23
25 23 23
25 23 23
25 23 23
25 23 23
25 23 23
25 23 23
25 23 23
25 23 23
25 23 23
25 23 23
25 23 23
25 23 23
25 23 23
25 23 23
25 23 23
25 23 23
25 23 23
25 23 23
25 23 23
25 23 23
25 23 23
25 23 23
25 23 23
25 23 23
25 23 23
25 23 23
25 23 23
25 23 23
25 23 23
25 23 23
25 23 23
25 23 23
25 23 23
25 23 23
25 23 23
25 23 23
25 23 23
25 23 23
25 23 23
25 23 23
25 23 23
25 23 23
25 23 23
25 23 23
25 23 23
25 23 23
25 23 23
25 23 23
25 23 23
25 23 23
25 23 23
25 23 23
25 23 23
25 23 23
25 23 23
25 23 23
25 23 23
25 23 23
25 23 23
25 23 23
25 23 23
25 23 23
25 23 23
25 23 23
25 23 23
25 23 23
25 23 23
25 23 23
25 23 23
25 23 23
25 23 23
25 23 23
25 23 23
25 23 23
25 23 23
25 23 23
25 23 23
25 23 23
25 23 23
25 23 23
25 23 23
25 23 23
25 23 23
25 23 23
25 23 23
25 23 23
25 23 23
25 23 23
25 23 23
25 23 23
25 23 23
25 23 23
25 23 23
25 23 23
25 23 23
25 23 23
25 23 23
25 23 23
25 23 23
25 23 23
25 23 23
25 23 23
25 23 23
25 23 23
25 23 23
25 23 23
25 23 23
25 23 23
25 23 23
25 23 23
25 23 23
25 23 23
25 23 23
25 23 23
25 23 23
25 23 23
25 23 23
25 23 23
25 23 23
25 23 23
25 23 23
25 23 23
25 23 23
25 23 23
25 23 23
25 23 23
25 23 23
25 23 23
25 23 23
25 23 23
25 23 23
25 23 23
25 23 23
25 23 23
25 23 23
25 23 23
25 23 23
25 23 23
25 23 23
25 23 23
25 23 23
25 23 23
25 23 23
25 23 23
25 23 23
25 23 23
25 23 23
25 23 23
25 23 23
25 23 23
25 23 23
25 23 23
25 23 23
25 23 23
25 23 23
25 23 23
25 23 23
25 23 23
25 23 23
25 23 23
25 23 23
25 23 23
25 23 23
25 23 23
25 23 23
25 23 23
25 23 23
25 23 23
25 23 23
25 23 23
25 23 23
25 23 23
25 23 23
25 23 23
25 23 23
25 23 23
25 23 23
25 23 23
25 23 23
25 23 23
25 23 23
25 23 23
25 23 23
25 23 23
25 23 23
25 23 23
25 23 23
25 23 23
25 23 23
25 23 23
25 23 23
25 23 23
25 23 23
25 23 23
25 23 23
25 23 23
25 23 23
25 23 23
25 23 23
25 23 23
25 23 23
25 23 23
25 23 23
25 23 23
25 23 23
25 23 23
25 23 23
25 23 23
25 23 23
25 23 23
25 23 23
25 23 23
25 23 23
25 23 23
25 23 23
25 23 23
25 23 23
25 23 23
25 23 23
25 23 23
25 23 23
25 23 23
25 23 23
25 23 23
25 23 23
25 23 23
25 23 23
25 23 23
25 23 23
25 23 23
25 23 23
25 23 23
25 23 23
25 23 23
25 23 23
25 23 23
25 23 23
25 23 23
25 23 23
25 23 23
25 23 23
25 23 23
25 23 23
25 23 23
25 23 23
25 23 23
25 23 23
25 23 23
25 23 23
25 23 23
25 23 23
25 23 23
25 23 23
25 23 23
25 23 23
25 23 23
25 23 23
25 23 23
25 23 23
25 23 23
25 23 23
25 23 23
25 23 23
25 23 23
25 23 23
25 23 23
25 23 23
25 23 23
25 23 23
25 23 23
25 23 23
25 23 23
25 23 23
25 23 23
25 23 23
25 23 23
25 23 23
25 23 23
25 23 23
25 23 23
25 23 23
25 23 23
25 23 23
25 23 23
25 23 23
25 23 23
25 23 23
25 23 23
25 23 23
25 23 23
25 23 23
25 23 23
25 23 23
25 23 23
25 23 23
25 23 23
25 23 23
25 23 23
25 23 23
25 23 23
25 23 23
25 23 23
25 23 23
25 23 23
25 23 23
25 23 23
25 23 23
25 23 23
25 23 23
25 23 23
25 23 23
25 23 23
25 23 23
25 23 23
25 23 23
25 23 23
25 23 23
25 23 23
25 23 23
25 23 23
25 23 23
25 23 23
25 23 23
25 23 23
25 23 23
25 23 23
25 23 23
25 23 23
25 23 23
25 23 23
25 23 23
25 23 23
25 23 23
25 23 23
25 23 23
25 23 23
25 23 23
25 23 23
25 23 23
25 23 23
25 23 23
25 23 23
25 23 23
25 23 23
25 23 23
25 23 23
25 23 23
25 23 23
25 23 23
25 23 23
25 23 23
25 23 23
25 23 23
25 23 23
25 23 23
25 23 23
25 23 23
25 23 23
25 23 23
25 23 23
25 23 23
25 23 23
25 23 23
25 23 23
25 23 23
25 23 23
25 23 23
25 23 23
25 23 23
25 23 23
25 23 23
25 23 23
25 23 23
25 23 23
25 23 23
25 23 23
25 23 23
25 23 23
25 23 23
25 23 23
25 23 23
25 23 23
25 23 23
25 23 23
25 23 23
25 23 23
25 23 23
25 23 23
25 23 23
25 23 23
25 23 23
25 23 23
25 23 23
25 23 23
25 23 23
25 23 23
25 23 23
25 23 23
25 23 23
25 23 23
25 23 23
25 23 23
25 23 23
25 23 23
25 23 23
25 23 23
25 23 23
25 23 23
25 23 23
25 23 23
25 23 23
25 23 23
25 23 23
25 23 23
25 23 23
25 23 23
25 23 23
25 23 23
25 23 23
25 23 23
25 23 23
25 23 23
25 23 23
25 23 23
25 23 23
25 23 23
25 23 23
25 23 23
25 23 23
25 23 23
25 23 23
25 23 23
25 23 23
25 23 23
25 23 23
25 23 23
25 23 23
25 23 23
25 23 23
25 23 23
25 23 23
25 23 23
25 23 23
25 23 23
25 23 23
25 23 23
25 23 23
25 23 23
25 23 23
25 23 23
25 23 23
25 23 23
25 23 23
25 23 23
25 23 23
25 23 23
25 23 23
25 23 23
25 23 23
25 23 23
25 23 23
25 23 23
25 23 23
25 23 23
25 23 23
25 23 23
25 23 23
25 23 23
25 23 23
25 23 23
25 23 23
25 23 23
25 23 23
25 23 23
25 23 23
25 23 23
25 23 23
25 23 23
25 23 23
25 23 23
25 23 23
25 23 23
25 23 23
25 23 23
25 23 23
25 23 23
25 23 23
25 23 23
25 23 23
25 23 23
25 23 23
25 23 23
25 23 23
25 23 23
25 23 23
25 23 23
25 23 23
25 23 23
25 23 23
25 23 23
25 23 23
25 23 23
25 23 23
25 23 23
25 23 23
25 23 23
25 23 23
25 23 23
25 23 23
25 23 23
25 23 23
25 23 23
25 23 23
25 23 23
25 23 23
25 23 23
25 23 23
25 23 23
25 23 23
25 23 23
25 23 23
25 23 23
25 23 23
25 23 23
25 23 23
25 23 23
25 23 23
25 23 23
25 23 23
25 23 23
25 23 23
25 23 23
25 23 23
25 23 23
25 23 23
25 23 23
25 23 23
25 23 23
25 23 23
25 23 23
25 23 23
25 23 23
25 23 23
25 23 23
25 23 23
25 23 23
25 23 23
25 23 23
25 23 23
25 23 23
25 23 23
25 23 23
25 23 23
25 23 23
25 23 23
25 23 23
25 23 23
25 23 23
25 23 23
25 23 23
25 23 23
25 23 23
25 23 23
25 23 23
25 23 23
25 23 23
25 23 23
25 23 23
25 23 23
25 23 23
25 23 23
25 23 23
25 23 23
25 23 23
25 23 23
25 23 23
25 23 23
25 23 23
25 23 23
25 23 23
25 23 23
25 23 23
25 23 23
25 23 23
25 23 23
25 23 23
25 23 23
25 23 23
25 23 23
25 23 23
25 23 23
25 23 23
25 23 23
25 23 23
25 23 23
25 23 23
25 23 23
25 23 23
25 23 23
25 23 23
25 23 23
25 23 23
25 23 23
25 23 23
25 23 23
25 23 23
25 23 23
25 23 23
25 23 23
25 23 23
25 23 23
25 23 23
25 23 23
25 23 23
25 23 23
25 23 23
25 23 23
25 23 23
25 23 23
25 23 23
25 23 23
25 23 23
25 23 23
25 23 23
25 23 23
25 23 23
25 23 23
25 23 23
25 23 23
25 23 23
25 23 23
25 23 23
25 23 23
25 23 23
25 23 23
25 23 23
25 23 23
25 23 23
25 23 23
25 23 23
25 23 23
25 23 23
25 23 23
25 23 23
25 23 23
25 23 23
25 23 23
25 23 23
25 23 23
25 23 23
25 23 23
25 23 23
25 23 23
25 23 23
25 23 23
25 23 23
25 23 23
25 23 23
25 23 23
25 23 23
25 23 23
25 23 23
25 23 23
25 23 23
25 23 23
25 23 23
25 23 23
25 23 23
25 23 23
25 23 23
25 23 23
25 23 23
25 23 23
25 23 23
25 23 23
25 23 23
25 23 23
25 23 23
25 23 23
25 23 23
25 23 23
25 23 23
25 23 23
25 23 23
25 23 23
25 23 23
25 23 23
25 23 23
25 23 23
25 23 23
25 23 23
25 23 23
25 23 23
25 23 23
25 23 23
25 23 23
25 23 23
25 23 23
25 23 23
25 23 23
25 23 23
25 23 23
25 23 23
25 23 23
25 23 23
25 23 23
25 23 23
25 23 23
25 23 23
25 23 23
25 23 23
25 23 23
25 23 23
25 23 23
25 23 23
25 23 23
25 23 23
25 23 23
25 23 23
25 23 23
25 23 23
25 23 23
25 23 23
25 23 23
25 23 23
25 23 23
25 23 23
25 23 23
25 23 23
25 23 23
25 23 23
25 23 23
25 23 23
25 23 23
25 23 23
25 23 23
25 23 23
25 23 23
25 23 23
25 23 23
25 23 23
25 23 23
25 23 23
25 23 23
25 23 23
25 23 23
25 23 23
25 23 23
25 23 23
25 23 23
25 23 23
25 23 23
25 23 23
25 23 23
25 23 23
25 23 23
25 23 23
25 23 23
25 23 23
25 23 23
25 23 23
25 23 23
25 23 23
25 23 23
25 23 23
25 23 23
25 23 23
25 23 23
25 23 23
25 23 23
25 23 23
25 23 23
25 23 23
25 23 23
25 23 23
25 23 23
25 23 23
25 23 23
25 23 23
25 23 23
25 23 23
25 23 23
25 23 23
25 23 23
25 23 23
25 23 23
25 23 23
25 23 23
25 23 23
25 23 23
25 23 23
25 23 23
25 23 23
25 23 23
25 23 23
25 23 23
25 23 23
25 23 23
25 23 23
25 23 23
25 23 23
25 23 23
25 23 23
25 23 23
25 23 23
25 23 23
25 23 23
25 23 23
25 23 23
25 23 23
25 23 23
25 23 23
25 23 23
25 23 23
25 23 23
25 23 23
25 23 23
25 23 23
25 23 23
25 23 23
25 23 23
25 23 23
25 23 23
25 23 23
25 23 23
25 23 23
25 23 23
25 23 23
25 23 23
25 23 23
25 23 23
25 23 23
25 23 23
25 23 23
25 23 23
25 23 23
25 23 23
25 23 23
25 23 23
25 23 23
25 23 23
25 23 23
25 23 23
25 23 23
25 23 23
25 23 23
25 23 23
25 23 23
25 23 23
25 23 23
25 23 23
25 23 23
25 23 23
25 23 23
25 23 23
25 23 23
25 23 23
25 23 23
25 23 23
25 23 23
25 23 23
25 23 23
25 23 23
25 23 23
25 23 23
25 23 23
25 23 23
25 23 23
25 23 23
25 23 23
25 23 23
25 23 23
25 23 23
25 23 23
25 23 23
25 23 23
25 23 23
25 23 23
25 23 23
25 23 23
25 23 23
25 23 23
25 23 23
25 23 23
25 23 23
25 23 23
25 23 23
25 23 23
25 23 23
25 23 23
25 23 23
25 23 23
25 23 23
25 23 23
25 23 23
25 23 23
25 23 23
25 23 23
25 23 23
25 23 23
25 23 23
25 23 23
25 23 23
25 23 23
25 23 23
25 23 23
25 23 23
25 23 23
25 23 23
25 23 23
25 23 23
25 23 23
25 23 23
25 23 23
25 23 23
25 23 23
25 23 23
25 23 23
25 23 23
25 23 23
25 23 23
25 23 23
25 23 23
25 23 23
25 23 23
25 23 23
25 23 23
25 23 23
25 23 23
25 23 23
25 23 23
25 23 23
25 23 23
25 23 23
25 23 23
25 23 23
25 23 23
25 23 23
25 23 23
25 23 23
25 23 23
25 23 23
25 23 23
25 23 23
25 23 23
25 23 23
25 23 23
25 23 23
25 23 23
25 23 23
25 23 23
25 23 23
25 23 23
25 23 23
25 23 23
25 23 23
25 23 23
25 23 23
25 23 23
25 23 23
25 23 23
25 23 23
25 23 23
25 23 23
25 23 23
25 23 23
25 23 23
25 23 23
25 23 23
25 23 23
25 23 23
25 23 23
25 23 23
25 23 23
25 23 23
25 23 23
25 23 23
25 23 23
25 23 23
25 23 23
25 23 23
25 23 23
25 23 23
25 23 23
25 23 23
25 23 23
25 23 23
25 23 23
25 23 23
25 23 23
25 23 23
25 23 23
25 23 23
25 23 23
25 23 23
25 23 23
25 23 23
25 23 23
25 23 23
25 23 23
25 23 23
25 23 23
25 23 23
25 23 23
25 23 23
25 23 23
25 23 23
25 23 23
25 23 23
25 23 23
25 23 23
25 23 23
25 23 23
25 23 23
25 23 23
25 23 23
25 23 23
25 23 23
25 23 23
25 23 23
25 23 23
25 23 23
25 23 23
25 23 23
25 23 23
25 23 23
25 23 23
25 23 23
25 23 23
25 23 23
25 23 23
25 23 23
25 23 23
25 23 23
25 23 23
25 23 23
25 23 23
25 23 23
25 23 23
25 23 23
25 23 23
25 23 23
25 23 23
25 23 23
25 23 23
25 23 23
25 23 23
25 23 23
25 23 23
25 23 23
25 23 23
25 23 23
25 23 23
25 23 23
25 23 23
25 23 23
25 23 23
25 23 23
25 23 23
25 23 23
25 23 23
25 23 23
25 23 23
25 23 23
25 23 23
25 23 23
25 23 23
25 23 23
25 23 23
25 23 23
25 23 23
25 23 23
25 23 23
25 23 23
25 23 23
25 23 23
25 23 23
25 23 23
25 23 23
25 23 23
25 23 23
25 23 23
25 23 23
25 23 23
25 23 23
25 23 23
25 23 23
25 23 23
25 23 23
25 23 23
25 23 23
25 23 23
25 23 23
25 23 23
25 23 23
25 23 23
25 23 23
25 23 23
25 23 23
25 23 23
25 23 23
25 23 23
25 23 23
25 23 23
25 23 23
25 23 23
25 23 23
25 23 23
25 23 23
25 23 23
25 23 23
25 23 23
25 23 23
25 23 23
25 23 23
25 23 23
25 23 23
25 23 23
25 23 23
25 23 23
25 23 23
25 23 23
25 23 23
25 23 23
25 23 23
25 23 23
25 23 23
25 23 23
25 23 23
25 23 23
25 23 23
25 23 23
25 23 23
25 23 23
25 23 23
25 23 23
25 23 23
25 23 23
25 23 23
25 23 23
25 23 23
25 23 23
25 23 23
25 23 23
25 23 23
25 23 23
25 23 23
25 23 23
25 23 23
25 23 23
25 23 23
25 23 23
25 23 23
25 23 23
25 23 23
25 23 23
25 23 23
25 23 23
25 23 23
25 23 23
25 23 23
25 23 23
25 23 23
25 23 23
25 23 23
25 23 23
25 23 23
25 23 23
25 23 23
25 23 23
25 23 23
25 23 23
25 23 23
25 23 23
25 23 23
25 23 23
25 23 23
25 23 23
25 23 23
25 23 23
25 23 23
25 23 23
25 23 23
25 23 23
25 23 23
25 23 23
25 23 23
25 23 23
25 23 23
25 23 23
25 23 23
25 23 23
25 23 23
25 23 23
25 23 23
25 23 23
25 23 23
25 23 23
25 23 23
25 23 23
25 23 23
25 23 23
25 23 23
25 23 23
25 23 23
25 23 23
25 23 23
25 23 23
25 23 23
25 23 23
25 23 23
25 23 23
25 23 23
25 23 23
25 23 23
25 23 23
25 23 23
25 23 23
25 23 23
25 23 23
25 23 23
25 23 23
25 23 23
25 23 23
25 23 23
25 23 23
25 23 23
25 23 23
25 23 23
25 23 23
25 23 23
25 23 23
25 23 23
25 23 23
25 23 23
25 23 23
25 23 23
25 23 23
25 23 23
25 23 23
25 23 23
25 23 23
25 23 23
25 23 23
75 67 67
75 67 67
74 67 67
74 67 67
74 67 67
74 66 66
74 66 66
74 66 66
73 66 66
73 66 66
73 66 66
73 66 66
160 144 144
160 144 144
160 144 144
159 143 143
159 143 143
159 143 143
158 142 142
158 142 142
158 142 142
157 142 142
157 141 141
157 141 141
156 141 141
156 140 140
156 140 140
155 140 140
155 139 139
155 139 139
154 139 139
154 139 139
154 138 138
153 138 138
153 138 138
114 91 11
122 97 12
117 94 11
108 86 10
95 76 9
80 64 8
63 50 6
43 34 4
25 20 2
25 20 2
25 20 2
25 20 2
149 134 134
149 134 134
149 134 134
148 133 133
148 133 133
148 133 133
147 133 133
147 132 132
147 132 132
43 87 8
48 96 9
48 97 9
48 96 9
46 92 9
43 86 8
39 79 7
35 70 7
30 61 6
25 50 5
18 37 3
12 25 2
12 25 2
12 25 2
12 25 2
12 25 2
142 128 128
142 128 128
142 128 128
142 127 127
141 127 127
141 127 127
141 127 127
141 127 127
140 126 126
140 126 126
140 126 126
140 126 126
139 125 125
139 125 125
139 125 125
139 125 125
225 203 203
225 203 203
225 203 203
225 203 203
225 203 203
225 203 203
225 203 203
225 203 203
225 203 203
225 202 202
225 202 202
225 202 202
179 161 161
179 161 161
179 161 161
179 161 161
179 161 161
179 161 161
179 161 161
178 161 161
178 161 161
178 160 160
178 160 160
178 160 160
178 160 160
178 160 160
178 160 160
178 160 160
178 160 160
178 160 160
178 160 160
178 160 160
178 160 160
178 160 160
178 160 160
178 160 160
178 160 160
178 160 160
177 160 160
177 160 160
177 160 160
177 160 160
177 159 159
177 159 159
177 159 159
177 159 159
177 159 159
177 159 159
177 159 159
177 159 159
177 159 159
177 159 159
177 159 159
177 159 159
177 159 159
177 159 159
177 159 159
176 159 159
176 159 159
176 159 159
176 159 159
176 159 159
176 159 159
176 158 158
176 158 158
176 158 158
176 158 158
176 158 158
176 158 158
176 158 158
176 158 158
176 158 158
176 158 158
176 158 158
176 158 158
176 158 158
175 158 158
175 158 158
175 158 158
175 158 158
175 158 158
175 158 158
175 158 158
175 158 158
175 157 157
175 157 157
175 157 157
175 157 157
175 157 157
175 157 157
175 157 157
175 157 157
175 157 157
175 157 157
175 157 157
174 157 157
174 157 157
174 157 157
174 157 157
174 157 157
174 157 157
174 157 157
174 157 157
174 157 157
174 157 157
174 157 157
174 156 156
174 156 156
174 156 156
174 156 156
174 156 156
174 156 156
179 161 161
179 161 161
179 161 161
179 161 161
179 161 161
179 161 161
179 161 161
179 161 161
179 161 161
179 161 161
179 161 161
179 161 161
179 161 161
178 161 161
178 161 161
178 161 161
178 161 161
178 160 160
178 160 160
178 160 160
178 160 160
178 160 160
178 160 160
178 160 160
178 160 160
178 160 160
178 160 160
178 160 160
178 160 160
178 160 160
178 160 160
178 160 160
178 160 160
178 160 160
178 160 160
178 160 160
178 160 160
178 160 160
178 160 160
178 160 160
178 160 160
178 160 160
178 160 160
178 160 160
178 160 160
178 160 160
178 160 160
178 160 160
178 160 160
177 160 160
177 160 160
177 160 160
177 160 160
177 160 160
177 160 160
177 160 160
177 160 160
177 159 159
177 159 159
177 159 159
177 159 159
177 159 159
177 159 159
177 159 159
177 159 159
177 159 159
177 159 159
177 159 159
177 159 159
177 159 159
177 159 159
177 159 159
177 159 159
177 159 159
177 159 159
177 159 159
177 159 159
177 159 159
177 159 159
177 159 159
177 159 159
177 159 159
177 159 159
177 159 159
177 159 159
176 159 159
176 159 159
176 159 159
176 159 159
176 159 159
176 159 159
176 159 159
176 159 159
176 159 159
176 159 159
176 159 159
176 159 159
176 158 158
176 158 158
176 158 158
179 161 161
179 161 161
179 161 161
179 161 161
179 161 161
179 161 161
179 161 161
179 161 161
179 161 161
179 161 161
179 161 161
179 161 161
179 161 161
179 161 161
179 161 161
179 161 161
179 161 161
179 161 161
178 161 161
178 161 161
178 161 161
178 161 161
178 161 161
178 160 160
178 160 160
178 160 160
178 160 160
178 160 160
178 160 160
178 160 160
178 160 160
178 160 160
178 160 160
178 160 160
178 160 160
178 160 160
178 160 160
178 160 160
178 160 160
178 160 160
178 160 160
178 160 160
178 160 160
178 160 160
178 160 160
178 160 160
178 160 160
178 160 160
178 160 160
178 160 160
178 160 160
178 160 160
178 160 160
178 160 160
178 160 160
178 160 160
178 160 160
178 160 160
178 160 160
178 160 160
178 160 160
178 160 160
178 160 160
178 160 160
178 160 160
178 160 160
178 160 160
178 160 160
178 160 160
178 160 160
177 160 160
177 160 160
177 160 160
177 160 160
177 160 160
177 160 160
177 160 160
177 160 160
177 160 160
177 160 160
177 160 160
177 160 160
177 159 159
177 159 159
177 159 159
177 159 159
177 159 159
177 159 159
177 159 159
177 159 159
177 159 159
177 159 159
177 159 159
177 159 159
177 159 159
177 159 159
177 159 159
177 159 159
177 159 159
177 159 159
179 161 161
179 161 161
179 161 161
179 161 161
179 161 161
179 161 161
179 161 161
179 161 161
179 161 161
179 161 161
179 161 161
179 161 161
179 161 161
179 161 161
179 161 161
179 161 161
179 161 161
179 161 161
179 161 161
179 161 161
179 161 161
179 161 161
178 161 161
178 161 161
178 161 161
178 161 161
178 161 161
178 161 161
178 161 161
178 160 160
178 160 160
178 160 160
178 160 160
178 160 160
178 160 160
178 160 160
178 160 160
178 160 160
178 160 160
178 160 160
178 160 160
178 160 160
178 160 160
178 160 160
178 160 160
178 160 160
178 160 160
178 160 160
178 160 160
178 160 160
178 160 160
178 160 160
178 160 160
178 160 160
178 160 160
178 160 160
178 160 160
178 160 160
178 160 160
178 160 160
178 160 160
178 160 160
178 160 160
178 160 160
178 160 160
178 160 160
178 160 160
178 160 160
178 160 160
178 160 160
178 160 160
178 160 160
178 160 160
178 160 160
178 160 160
178 160 160
178 160 160
178 160 160
178 160 160
178 160 160
178 160 160
178 160 160
178 160 160
178 160 160
178 160 160
178 160 160
178 160 160
178 160 160
178 160 160
178 160 160
178 160 160
177 160 160
177 160 160
177 160 160
177 160 160
177 160 160
177 160 160
177 160 160
177 160 160
177 160 160
179 161 161
179 161 161
179 161 161
179 161 161
179 161 161
179 161 161
179 161 161
179 161 161
179 161 161
179 161 161
179 161 161
179 161 161
179 161 161
179 161 161
179 161 161
179 161 161
179 161 161
179 161 161
179 161 161
179 161 161
179 161 161
179 161 161
179 161 161
179 161 161
179 161 161
179 161 161
178 161 161
178 161 161
178 161 161
178 161 161
178 161 161
178 161 161
178 161 161
178 161 161
178 161 161
178 160 160
178 160 160
178 160 160
178 160 160
178 160 160
178 160 160
178 160 160
178 160 160
178 160 160
178 160 160
178 160 160
178 160 160
178 160 160
178 160 160
178 160 160
178 160 160
178 160 160
178 160 160
178 160 160
178 160 160
178 160 160
178 160 160
178 160 160
178 160 160
178 160 160
178 160 160
178 160 160
178 160 160
178 160 160
178 160 160
178 160 160
178 160 160
178 160 160
178 160 160
178 160 160
178 160 160
178 160 160
178 160 160
178 160 160
178 160 160
178 160 160
178 160 160
178 160 160
178 160 160
178 160 160
178 160 160
178 160 160
178 160 160
178 160 160
178 160 160
178 160 160
178 160 160
178 160 160
178 160 160
178 160 160
178 160 160
178 160 160
178 160 160
178 160 160
178 160 160
178 160 160
178 160 160
178 160 160
178 160 160
178 160 160
179 161 161
179 161 161
179 161 161
179 161 161
179 161 161
179 161 161
179 161 161
179 161 161
179 161 161
179 161 161
179 161 161
179 161 161
179 161 161
179 161 161
179 161 161
179 161 161
179 161 161
179 161 161
179 161 161
179 161 161
179 161 161
179 161 161
179 161 161
179 161 161
179 161 161
179 161 161
179 161 161
179 161 161
179 161 161
179 161 161
178 161 161
178 161 161
178 161 161
178 161 161
178 161 161
178 161 161
178 161 161
178 161 161
178 161 161
178 161 161
178 161 161
178 160 160
178 160 160
178 160 160
178 160 160
178 160 160
178 160 160
178 160 160
178 160 160
178 160 160
178 160 160
178 160 160
178 160 160
178 160 160
178 160 160
178 160 160
178 160 160
178 160 160
178 160 160
178 160 160
178 160 160
178 160 160
178 160 160
178 160 160
178 160 160
178 160 160
178 160 160
178 160 160
178 160 160
178 160 160
178 160 160
178 160 160
178 160 160
178 160 160
178 160 160
178 160 160
178 160 160
178 160 160
178 160 160
178 160 160
178 160 160
178 160 160
178 160 160
178 160 160
178 160 160
178 160 160
178 160 160
178 160 160
178 160 160
178 160 160
178 160 160
178 160 160
178 160 160
178 160 160
178 160 160
178 160 160
178 160 160
178 160 160
178 160 160
178 160 160
179 161 161
179 161 161
179 161 161
179 161 161
179 161 161
179 161 161
179 161 161
179 161 161
179 161 161
179 161 161
179 161 161
179 161 161
179 161 161
179 161 161
179 161 161
179 161 161
179 161 161
179 161 161
179 161 161
179 161 161
179 161 161
179 161 161
179 161 161
179 161 161
179 161 161
179 161 161
179 161 161
179 161 161
179 161 161
179 161 161
179 161 161
179 161 161
179 161 161
179 161 161
178 161 161
178 161 161
178 161 161
178 161 161
178 161 161
178 161 161
178 161 161
178 161 161
178 161 161
178 161 161
178 161 161
178 161 161
178 161 161
178 160 160
178 160 160
178 160 160
178 160 160
178 160 160
178 160 160
178 160 160
178 160 160
178 160 160
178 160 160
178 160 160
178 160 160
178 160 160
178 160 160
178 160 160
178 160 160
178 160 160
178 160 160
178 160 160
178 160 160
178 160 160
178 160 160
178 160 160
178 160 160
178 160 160
178 160 160
178 160 160
178 160 160
178 160 160
178 160 160
178 160 160
178 160 160
178 160 160
178 160 160
178 160 160
178 160 160
178 160 160
178 160 160
178 160 160
178 160 160
178 160 160
178 160 160
178 160 160
178 160 160
178 160 160
178 160 160
178 160 160
178 160 160
178 160 160
178 160 160
178 160 160
178 160 160
178 160 160
179 161 161
179 161 161
179 161 161
179 161 161
179 161 161
179 161 161
179 161 161
179 161 161
179 161 161
179 161 161
179 161 161
179 161 161
179 161 161
179 161 161
179 161 161
179 161 161
179 161 161
179 161 161
179 161 161
179 161 161
179 161 161
179 161 161
179 161 161
179 161 161
179 161 161
179 161 161
179 161 161
179 161 161
179 161 161
179 161 161
179 161 161
179 161 161
179 161 161
179 161 161
179 161 161
179 161 161
179 161 161
179 161 161
178 161 161
178 161 161
178 161 161
178 161 161
178 161 161
178 161 161
178 161 161
178 161 161
178 161 161
178 161 161
178 161 161
178 161 161
178 161 161
178 161 161
178 161 161
178 160 160
178 160 160
178 160 160
178 160 160
178 160 160
178 160 160
178 160 160
178 160 160
178 160 160
178 160 160
178 160 160
178 160 160
178 160 160
178 160 160
178 160 160
178 160 160
178 160 160
178 160 160
178 160 160
178 160 160
178 160 160
178 160 160
178 160 160
178 160 160
178 160 160
178 160 160
178 160 160
178 160 160
178 160 160
178 160 160
178 160 160
178 160 160
178 160 160
178 160 160
178 160 160
178 160 160
178 160 160
178 160 160
178 160 160
178 160 160
178 160 160
178 160 160
178 160 160
178 160 160
178 160 160
178 160 160
178 160 160
179 161 161
179 161 161
179 161 161
179 161 161
179 161 161
179 161 161
179 161 161
179 161 161
179 161 161
179 161 161
179 161 161
179 161 161
179 161 161
179 161 161
179 161 161
179 161 161
179 161 161
179 161 161
179 161 161
179 161 161
179 161 161
179 161 161
179 161 161
179 161 161
179 161 161
179 161 161
179 161 161
179 161 161
179 161 161
179 161 161
179 161 161
179 161 161
179 161 161
179 161 161
179 161 161
179 161 161
179 161 161
179 161 161
179 161 161
179 161 161
179 161 161
179 161 161
178 161 161
178 161 161
178 161 161
178 161 161
178 161 161
178 161 161
178 161 161
178 161 161
178 161 161
178 161 161
178 161 161
178 161 161
178 161 161
178 161 161
178 161 161
178 161 161
178 161 161
178 160 160
178 160 160
178 160 160
178 160 160
178 160 160
178 160 160
178 160 160
178 160 160
178 160 160
178 160 160
178 160 160
178 160 160
178 160 160
178 160 160
178 160 160
178 160 160
178 160 160
178 160 160
178 160 160
178 160 160
178 160 160
178 160 160
178 160 160
178 160 160
178 160 160
178 160 160
178 160 160
178 160 160
178 160 160
178 160 160
178 160 160
178 160 160
178 160 160
178 160 160
178 160 160
178 160 160
178 160 160
178 160 160
178 160 160
178 160 160
178 160 160
179 161 161
179 161 161
179 161 161
179 161 161
179 161 161
179 161 161
179 161 161
179 161 161
179 161 161
179 161 161
179 161 161
179 161 161
179 161 161
179 161 161
179 161 161
179 161 161
179 161 161
179 161 161
179 161 161
179 161 161
179 161 161
179 161 161
179 161 161
179 161 161
179 161 161
179 161 161
179 161 161
179 161 161
179 161 161
179 161 161
179 161 161
179 161 161
179 161 161
179 161 161
179 161 161
179 161 161
179 161 161
179 161 161
179 161 161
179 161 161
179 161 161
179 161 161
179 161 161
179 161 161
179 161 161
179 161 161
178 161 161
178 161 161
178 161 161
178 161 161
178 161 161
178 161 161
178 161 161
178 161 161
178 161 161
178 161 161
178 161 161
178 161 161
178 161 161
178 161 161
178 161 161
178 161 161
178 161 161
178 161 161
178 161 161
178 160 160
178 160 160
178 160 160
178 160 160
178 160 160
178 160 160
178 160 160
178 160 160
178 160 160
178 160 160
178 160 160
178 160 160
178 160 160
178 160 160
178 160 160
178 160 160
178 160 160
178 160 160
178 160 160
178 160 160
178 160 160
178 160 160
178 160 160
178 160 160
178 160 160
178 160 160
178 160 160
178 160 160
178 160 160
178 160 160
178 160 160
178 160 160
178 160 160
178 160 160
178 160 160
179 161 161
179 161 161
179 161 161
179 161 161
179 161 161
179 161 161
179 161 161
179 161 161
179 161 161
179 161 161
179 161 161
179 161 161
179 161 161
179 161 161
179 161 161
179 161 161
179 161 161
179 161 161
179 161 161
179 161 161
179 161 161
179 161 161
179 161 161
179 161 161
179 161 161
179 161 161
179 161 161
179 161 161
179 161 161
179 161 161
179 161 161
179 161 161
179 161 161
179 161 161
179 161 161
179 161 161
179 161 161
179 161 161
179 161 161
179 161 161
179 161 161
179 161 161
179 161 161
179 161 161
179 161 161
179 161 161
179 161 161
179 161 161
179 161 161
179 161 161
178 161 161
178 161 161
178 161 161
178 161 161
178 161 161
178 161 161
178 161 161
178 161 161
178 161 161
178 161 161
178 161 161
178 161 161
178 161 161
178 161 161
178 161 161
178 161 161
178 161 161
178 161 161
178 161 161
178 161 161
178 161 161
178 160 160
178 160 160
178 160 160
178 160 160
178 160 160
178 160 160
178 160 160
178 160 160
178 160 160
178 160 160
178 160 160
178 160 160
178 160 160
178 160 160
178 160 160
178 160 160
178 160 160
178 160 160
178 160 160
178 160 160
178 160 160
178 160 160
178 160 160
178 160 160
178 160 160
178 160 160
178 160 160
178 160 160
178 160 160
179 161 161
179 161 161
179 161 161
179 161 161
179 161 161
179 161 161
179 161 161
179 161 161
179 161 161
179 161 161
179 161 161
179 161 161
179 161 161
179 161 161
179 161 161
179 161 161
179 161 161
179 161 161
179 161 161
179 161 161
179 161 161
179 161 161
179 161 161
179 161 161
179 161 161
179 161 161
179 161 161
179 161 161
179 161 161
179 161 161
179 161 161
179 161 161
179 161 161
179 161 161
179 161 161
179 161 161
179 161 161
179 161 161
179 161 161
179 161 161
179 161 161
179 161 161
179 161 161
179 161 161
179 161 161
179 161 161
179 161 161
179 161 161
179 161 161
179 161 161
179 161 161
179 161 161
179 161 161
179 161 161
178 161 161
178 161 161
178 161 161
178 161 161
178 161 161
178 161 161
178 161 161
178 161 161
178 161 161
178 161 161
178 161 161
178 161 161
178 161 161
178 161 161
178 161 161
178 161 161
178 161 161
178 161 161
178 161 161
178 161 161
178 161 161
178 161 161
178 160 160
178 160 160
178 160 160
178 160 160
178 160 160
178 160 160
178 160 160
178 160 160
178 160 160
178 160 160
178 160 160
178 160 160
178 160 160
178 160 160
178 160 160
178 160 160
178 160 160
178 160 160
178 160 160
178 160 160
178 160 160
178 160 160
178 160 160
178 160 160
179 161 161
179 161 161
179 161 161
179 161 161
179 161 161
179 161 161
179 161 161
179 161 161
179 161 161
179 161 161
179 161 161
179 161 161
179 161 161
179 161 161
179 161 161
179 161 161
179 161 161
179 161 161
179 161 161
179 161 161
179 161 161
179 161 161
179 161 161
179 161 161
179 161 161
179 161 161
179 161 161
179 161 161
179 161 161
179 161 161
179 161 161
179 161 161
179 161 161
179 161 161
179 161 161
179 161 161
179 161 161
179 161 161
179 161 161
179 161 161
179 161 161
179 161 161
179 161 161
179 161 161
179 161 161
179 161 161
179 161 161
179 161 161
179 161 161
179 161 161
179 161 161
179 161 161
179 161 161
179 161 161
179 161 161
179 161 161
179 161 161
179 161 161
178 161 161
178 161 161
178 161 161
178 161 161
178 161 161
178 161 161
178 161 161
178 161 161
178 161 161
178 161 161
178 161 161
178 161 161
178 161 161
178 161 161
178 161 161
178 161 161
178 161 161
178 161 161
178 161 161
178 161 161
178 161 161
178 161 161
178 161 161
178 161 161
178 160 160
178 160 160
178 160 160
178 160 160
178 160 160
178 160 160
178 160 160
178 160 160
178 160 160
178 160 160
178 160 160
178 160 160
178 160 160
178 160 160
178 160 160
178 160 160
178 160 160
178 160 160
179 161 161
179 161 161
179 161 161
179 161 161
179 161 161
179 161 161
179 161 161
179 161 161
179 161 161
179 161 161
179 161 161
179 161 161
179 161 161
179 161 161
179 161 161
179 161 161
179 161 161
179 161 161
179 161 161
179 161 161
179 161 161
179 161 161
179 161 161
179 161 161
179 161 161
179 161 161
179 161 161
179 161 161
179 161 161
179 161 161
179 161 161
179 161 161
179 161 161
179 161 161
179 161 161
179 161 161
179 161 161
179 161 161
179 161 161
179 161 161
179 161 161
179 161 161
179 161 161
179 161 161
179 161 161
179 161 161
179 161 161
179 161 161
179 161 161
179 161 161
179 161 161
179 161 161
179 161 161
179 161 161
179 161 161
179 161 161
179 161 161
179 161 161
179 161 161
179 161 161
179 161 161
179 161 161
178 161 161
178 161 161
178 161 161
178 161 161
178 161 161
178 161 161
178 161 161
178 161 161
178 161 161
178 161 161
178 161 161
178 161 161
178 161 161
178 161 161
178 161 161
178 161 161
178 161 161
178 161 161
178 161 161
178 161 161
178 161 161
178 161 161
178 161 161
178 161 161
178 161 161
178 161 161
178 160 160
178 160 160
178 160 160
178 160 160
178 160 160
178 160 160
178 160 160
178 160 160
178 160 160
178 160 160
178 160 160
178 160 160
179 161 161
179 161 161
179 161 161
179 161 161
179 161 161
179 161 161
179 161 161
179 161 161
179 161 161
179 161 161
179 161 161
179 161 161
179 161 161
179 161 161
179 161 161
179 161 161
179 161 161
179 161 161
179 161 161
179 161 161
179 161 161
179 161 161
179 161 161
179 161 161
179 161 161
179 161 161
179 161 161
179 161 161
179 161 161
179 161 161
179 161 161
179 161 161
179 161 161
179 161 161
179 161 161
179 161 161
179 161 161
179 161 161
179 161 161
179 161 161
179 161 161
179 161 161
179 161 161
179 161 161
179 161 161
179 161 161
179 161 161
179 161 161
179 161 161
179 161 161
179 161 161
179 161 161
179 161 161
179 161 161
179 161 161
179 161 161
179 161 161
179 161 161
179 161 161
179 161 161
179 161 161
179 161 161
179 161 161
179 161 161
179 161 161
179 161 161
178 161 161
178 161 161
178 161 161
178 161 161
178 161 161
178 161 161
178 161 161
178 161 161
178 161 161
178 161 161
178 161 161
178 161 161
178 161 161
178 161 161
178 161 161
178 161 161
178 161 161
178 161 161
178 161 161
178 161 161
178 161 161
178 161 161
178 161 161
178 161 161
178 161 161
178 161 161
178 161 161
178 161 161
178 160 160
178 160 160
178 160 160
178 160 160
178 160 160
178 160 160
179 161 161
179 161 161
179 161 161
179 161 161
179 161 161
179 161 161
179 161 161
179 161 161
179 161 161
179 161 161
179 161 161
179 161 161
179 161 161
179 161 161
179 161 161
179 161 161
179 161 161
179 161 161
179 161 161
179 161 161
179 161 161
179 161 161
179 161 161
179 161 161
179 161 161
179 161 161
179 161 161
179 161 161
179 161 161
179 161 161
179 161 161
179 161 161
179 161 161
179 161 161
179 161 161
179 161 161
179 161 161
179 161 161
179 161 161
179 161 161
179 161 161
179 161 161
179 161 161
179 161 161
179 161 161
179 161 161
179 161 161
179 161 161
179 161 161
179 161 161
179 161 161
179 161 161
179 161 161
179 161 161
179 161 161
179 161 161
179 161 161
179 161 161
179 161 161
179 161 161
179 161 161
179 161 161
179 161 161
179 161 161
179 161 161
179 161 161
179 161 161
179 161 161
179 161 161
178 161 161
178 161 161
178 161 161
178 161 161
178 161 161
178 161 161
178 161 161
178 161 161
178 161 161
178 161 161
178 161 161
178 161 161
178 161 161
178 161 161
178 161 161
178 161 161
178 161 161
178 161 161
178 161 161
178 161 161
178 161 161
178 161 161
178 161 161
178 161 161
178 161 161
178 161 161
178 161 161
178 161 161
178 161 161
178 161 161
178 161 161
179 161 161
179 161 161
179 161 161
179 161 161
179 161 161
179 161 161
179 161 161
179 161 161
179 161 161
179 161 161
179 161 161
179 161 161
179 161 161
179 161 161
179 161 161
179 161 161
179 161 161
179 161 161
179 161 161
179 161 161
179 161 161
179 161 161
179 161 161
179 161 161
179 161 161
179 161 161
179 161 161
179 161 161
179 161 161
179 161 161
179 161 161
179 161 161
179 161 161
179 161 161
179 161 161
179 161 161
179 161 161
179 161 161
179 161 161
179 161 161
179 161 161
179 161 161
179 161 161
179 161 161
179 161 161
179 161 161
179 161 161
179 161 161
179 161 161
179 161 161
179 161 161
179 161 161
179 161 161
179 161 161
179 161 161
179 161 161
179 161 161
179 161 161
179 161 161
179 161 161
179 161 161
179 161 161
179 161 161
179 161 161
179 161 161
179 161 161
179 161 161
179 161 161
179 161 161
179 161 161
179 161 161
179 161 161
179 161 161
178 161 161
178 161 161
178 161 161
178 161 161
178 161 161
178 161 161
178 161 161
178 161 161
178 161 161
178 161 161
178 161 161
178 161 161
178 161 161
178 161 161
178 161 161
178 161 161
178 161 161
178 161 161
178 161 161
178 161 161
178 161 161
178 161 161
178 161 161
178 161 161
178 161 161
178 161 161
178 161 161
179 161 161
179 161 161
179 161 161
179 161 161
179 161 161
179 161 161
179 161 161
179 161 161
179 161 161
179 161 161
179 161 161
179 161 161
179 161 161
179 161 161
179 161 161
179 161 161
179 161 161
179 161 161
179 161 161
179 161 161
179 161 161
179 161 161
179 161 161
179 161 161
179 161 161
179 161 161
179 161 161
179 161 161
179 161 161
179 161 161
179 161 161
179 161 161
179 161 161
179 161 161
179 161 161
179 161 161
179 161 161
179 161 161
179 161 161
179 161 161
179 161 161
179 161 161
179 161 161
179 161 161
179 161 161
179 161 161
179 161 161
179 161 161
179 161 161
179 161 161
179 161 161
179 161 161
179 161 161
179 161 161
179 161 161
179 161 161
179 161 161
179 161 161
179 161 161
179 161 161
179 161 161
179 161 161
179 161 161
179 161 161
179 161 161
179 161 161
179 161 161
179 161 161
179 161 161
179 161 161
179 161 161
179 161 161
179 161 161
179 161 161
179 161 161
179 161 161
179 161 161
178 161 161
178 161 161
178 161 161
178 161 161
178 161 161
178 161 161
178 161 161
178 161 161
178 161 161
178 161 161
178 161 161
178 161 161
178 161 161
178 161 161
178 161 161
178 161 161
178 161 161
178 161 161
178 161 161
178 161 161
178 161 161
178 161 161
178 161 161
179 161 161
179 161 161
179 161 161
179 161 161
179 161 161
179 161 161
179 161 161
179 161 161
179 161 161
179 161 161
179 161 161
179 161 161
179 161 161
179 161 161
179 161 161
179 161 161
179 161 161
179 161 161
179 161 161
179 161 161
179 161 161
179 161 161
179 161 161
179 161 161
179 161 161
179 161 161
179 161 161
179 161 161
179 161 161
179 161 161
179 161 161
179 161 161
179 161 161
179 161 161
179 161 161
179 161 161
179 161 161
179 161 161
179 161 161
179 161 161
179 161 161
179 161 161
179 161 161
179 161 161
179 161 161
179 161 161
179 161 161
179 161 161
179 161 161
179 161 161
179 161 161
179 161 161
179 161 161
179 161 161
179 161 161
179 161 161
179 161 161
179 161 161
179 161 161
179 161 161
179 161 161
179 161 161
179 161 161
179 161 161
179 161 161
179 161 161
179 161 161
179 161 161
179 161 161
179 161 161
179 161 161
179 161 161
179 161 161
179 161 161
179 161 161
179 161 161
179 161 161
179 161 161
179 161 161
179 161 161
179 161 161
178 161 161
178 161 161
178 161 161
178 161 161
178 161 161
178 161 161
178 161 161
178 161 161
178 161 161
178 161 161
178 161 161
178 161 161
178 161 161
178 161 161
178 161 161
178 161 161
178 161 161
178 161 161
178 161 161
179 161 161
179 161 161
179 161 161
179 161 161
179 161 161
179 161 161
179 161 161
179 161 161
179 161 161
179 161 161
179 161 161
179 161 161
179 161 161
179 161 161
179 161 161
179 161 161
179 161 161
179 161 161
179 161 161
179 161 161
179 161 161
179 161 161
179 161 161
179 161 161
179 161 161
179 161 161
179 161 161
179 161 161
179 161 161
179 161 161
179 161 161
179 161 161
179 161 161
179 161 161
179 161 161
179 161 161
179 161 161
179 161 161
179 161 161
179 161 161
179 161 161
179 161 161
179 161 161
179 161 161
179 161 161
179 161 161
179 161 161
179 161 161
179 161 161
179 161 161
179 161 161
179 161 161
179 161 161
179 161 161
179 161 161
179 161 161
179 161 161
179 161 161
179 161 161
179 161 161
179 161 161
179 161 161
179 161 161
179 161 161
179 161 161
179 161 161
179 161 161
179 161 161
179 161 161
179 161 161
179 161 161
179 161 161
179 161 161
179 161 161
179 161 161
179 161 161
179 161 161
179 161 161
179 161 161
179 161 161
179 161 161
179 161 161
179 161 161
179 161 161
179 161 161
178 161 161
178 161 161
178 161 161
178 161 161
178 161 161
178 161 161
178 161 161
178 161 161
178 161 161
178 161 161
178 161 161
178 161 161
178 161 161
178 161 161
178 161 161
179 161 161
179 161 161
179 161 161
179 161 161
179 161 161
179 161 161
179 161 161
179 161 161
179 161 161
179 161 161
179 161 161
179 161 161
179 161 161
179 161 161
179 161 161
179 161 161
179 161 161
179 161 161
179 161 161
179 161 161
179 161 161
179 161 161
179 161 161
179 161 161
179 161 161
179 161 161
179 161 161
179 161 161
179 161 161
179 161 161
179 161 161
179 161 161
179 161 161
179 161 161
179 161 161
179 161 161
179 161 161
179 161 161
179 161 161
179 161 161
179 161 161
179 161 161
179 161 161
179 161 161
179 161 161
179 161 161
179 161 161
179 161 161
179 161 161
179 161 161
179 161 161
179 161 161
179 161 161
179 161 161
179 161 161
179 161 161
179 161 161
179 161 161
179 161 161
179 161 161
179 161 161
179 161 161
179 161 161
179 161 161
179 161 161
179 161 161
179 161 161
179 161 161
179 161 161
179 161 161
179 161 161
179 161 161
179 161 161
179 161 161
179 161 161
179 161 161
179 161 161
179 161 161
179 161 161
179 161 161
179 161 161
179 161 161
179 161 161
179 161 161
179 161 161
179 161 161
179 161 161
179 161 161
179 161 161
178 161 161
178 161 161
178 161 161
178 161 161
178 161 161
178 161 161
178 161 161
178 161 161
178 161 161
178 161 161
178 161 161
179 161 161
179 161 161
179 161 161
179 161 161
179 161 161
179 161 161
179 161 161
179 161 161
179 161 161
179 161 161
179 161 161
179 161 161
179 161 161
179 161 161
179 161 161
179 161 161
179 161 161
179 161 161
179 161 161
179 161 161
179 161 161
179 161 161
179 161 161
179 161 161
179 161 161
179 161 161
179 161 161
179 161 161
179 161 161
179 161 161
179 161 161
179 161 161
179 161 161
179 161 161
179 161 161
179 161 161
179 161 161
179 161 161
179 161 161
179 161 161
179 161 161
179 161 161
179 161 161
179 161 161
179 161 161
179 161 161
179 161 161
179 161 161
179 161 161
179 161 161
179 161 161
179 161 161
179 161 161
179 161 161
179 161 161
179 161 161
179 161 161
179 161 161
179 161 161
179 161 161
179 161 161
179 161 161
179 161 161
179 161 161
179 161 161
179 161 161
179 161 161
179 161 161
179 161 161
179 161 161
179 161 161
179 161 161
179 161 161
179 161 161
179 161 161
179 161 161
179 161 161
179 161 161
179 161 161
179 161 161
179 161 161
179 161 161
179 161 161
179 161 161
179 161 161
179 161 161
179 161 161
179 161 161
179 161 161
179 161 161
179 161 161
179 161 161
179 161 161
178 161 161
178 161 161
178 161 161
178 161 161
178 161 161
178 161 161
178 161 161
179 161 161
179 161 161
179 161 161
179 161 161
179 161 161
179 161 161
179 161 161
179 161 161
179 161 161
179 161 161
179 161 161
179 161 161
179 161 161
179 161 161
179 161 161
179 161 161
179 161 161
179 161 161
179 161 161
179 161 161
179 161 161
179 161 161
179 161 161
179 161 161
179 161 161
179 161 161
179 161 161
179 161 161
179 161 161
179 161 161
179 161 161
179 161 161
179 161 161
179 161 161
179 161 161
179 161 161
179 161 161
179 161 161
179 161 161
179 161 161
179 161 161
179 161 161
179 161 161
179 161 161
179 161 161
179 161 161
179 161 161
179 161 161
179 161 161
179 161 161
179 161 161
179 161 161
179 161 161
179 161 161
179 161 161
179 161 161
179 161 161
179 161 161
179 161 161
179 161 161
179 161 161
179 161 161
179 161 161
179 161 161
179 161 161
179 161 161
179 161 161
179 161 161
179 161 161
179 161 161
179 161 161
179 161 161
179 161 161
179 161 161
179 161 161
179 161 161
179 161 161
179 161 161
179 161 161
179 161 161
179 161 161
179 161 161
179 161 161
179 161 161
179 161 161
179 161 161
179 161 161
179 161 161
179 161 161
179 161 161
179 161 161
179 161 161
179 161 161
179 161 161
179 161 161
179 161 161
179 161 161
178 161 161
178 161 161
178 161 161
179 161 161
179 161 161
179 161 161
179 161 161
179 161 161
179 161 161
179 161 161
179 161 161
179 161 161
179 161 161
179 161 161
179 161 161
179 161 161
179 161 161
179 161 161
179 161 161
179 161 161
179 161 161
179 161 161
179 161 161
179 161 161
179 161 161
179 161 161
179 161 161
179 161 161
179 161 161
179 161 161
179 161 161
179 161 161
179 161 161
179 161 161
179 161 161
179 161 161
179 161 161
179 161 161
179 161 161
179 161 161
179 161 161
179 161 161
179 161 161
179 161 161
179 161 161
179 161 161
179 161 161
179 161 161
179 161 161
179 161 161
179 161 161
179 161 161
179 161 161
179 161 161
179 161 161
179 161 161
179 161 161
179 161 161
179 161 161
179 161 161
179 161 161
179 161 161
179 161 161
179 161 161
179 161 161
179 161 161
179 161 161
179 161 161
179 161 161
179 161 161
179 161 161
179 161 161
179 161 161
179 161 161
179 161 161
179 161 161
179 161 161
179 161 161
179 161 161
179 161 161
179 161 161
179 161 161
179 161 161
179 161 161
179 161 161
179 161 161
179 161 161
179 161 161
179 161 161
179 161 161
179 161 161
179 161 161
179 161 161
179 161 161
179 161 161
179 161 161
179 161 161
179 161 161
179 161 161
179 161 161
179 161 161
179 161 161
179 161 161
179 161 161
179 161 161
179 161 161
179 161 161
179 161 161
179 161 161
179 161 161
179 161 161
179 161 161
179 161 161
179 161 161
179 161 161
179 161 161
179 161 161
179 161 161
179 161 161
179 161 161
179 161 161
179 161 161
179 161 161
179 161 161
179 161 161
179 161 161
179 161 161
179 161 161
179 161 161
179 161 161
179 161 161
179 161 161
179 161 161
179 161 161
179 161 161
179 161 161
179 161 161
179 161 161
179 161 161
179 161 161
179 161 161
179 161 161
179 161 161
179 161 161
179 161 161
179 161 161
179 161 161
179 161 161
179 161 161
179 161 161
179 161 161
179 161 161
179 161 161
179 161 161
179 161 161
179 161 161
179 161 161
179 161 161
179 161 161
179 161 161
179 161 161
179 161 161
179 161 161
179 161 161
179 161 161
179 161 161
179 161 161
179 161 161
179 161 161
179 161 161
179 161 161
179 161 161
179 161 161
179 161 161
179 161 161
179 161 161
179 161 161
179 161 161
179 161 161
179 161 161
179 161 161
179 161 161
179 161 161
179 161 161
179 161 161
179 161 161
179 161 161
179 161 161
179 161 161
179 161 161
179 161 161
179 161 161
179 161 161
179 161 161
179 161 161
179 161 161
179 161 161
179 161 161
179 161 161
179 161 161
179 161 161
179 161 161
179 161 161
179 161 161
179 161 161
179 161 161
179 161 161
179 161 161
179 161 161
179 161 161
179 161 161
179 161 161
179 161 161
179 161 161
179 161 161
179 161 161
179 161 161
179 161 161
179 161 161
179 161 161
179 161 161
179 161 161
179 161 161
179 161 161
179 161 161
179 161 161
179 161 161
179 161 161
179 161 161
179 161 161
179 161 161
179 161 161
179 161 161
179 161 161
179 161 161
179 161 161
179 161 161
179 161 161
179 161 161
179 161 161
179 161 161
179 161 161
179 161 161
179 161 161
179 161 161
179 161 161
179 161 161
179 161 161
179 161 161
179 161 161
179 161 161
179 161 161
179 161 161
179 161 161
179 161 161
179 161 161
179 161 161
179 161 161
179 161 161
179 161 161
179 161 161
179 161 161
179 161 161
179 161 161
179 161 161
179 161 161
179 161 161
179 161 161
179 161 161
179 161 161
179 161 161
179 161 161
179 161 161
179 161 161
179 161 161
179 161 161
179 161 161
179 161 161
179 161 161
179 161 161
179 161 161
179 161 161
179 161 161
179 161 161
179 161 161
179 161 161
179 161 161
179 161 161
179 161 161
179 161 161
179 161 161
179 161 161
179 161 161
179 161 161
179 161 161
179 161 161
179 161 161
179 161 161
179 161 161
179 161 161
179 161 161
179 161 161
179 161 161
179 161 161
179 161 161
179 161 161
179 161 161
179 161 161
179 161 161
179 161 161
179 161 161
179 161 161
179 161 161
179 161 161
179 161 161
179 161 161
179 161 161
179 161 161
179 161 161
179 161 161
179 161 161
179 161 161
179 161 161
179 161 161
179 161 161
179 161 161
179 161 161
179 161 161
179 161 161
179 161 161
179 161 161
179 161 161
179 161 161
179 161 161
179 161 161
179 161 161
179 161 161
179 161 161
179 161 161
179 161 161
179 161 161
179 161 161
179 161 161
179 161 161
179 161 161
179 161 161
179 161 161
179 161 161
179 161 161
179 161 161
179 161 161
179 161 161
179 161 161
179 161 161
179 161 161
179 161 161
179 161 161
179 161 161
179 161 161
179 161 161
179 161 161
179 161 161
179 161 161
179 161 161
179 161 161
179 161 161
179 161 161
179 161 161
179 161 161
179 161 161
179 161 161
179 161 161
179 161 161
179 161 161
179 161 161
179 161 161
179 161 161
179 161 161
179 161 161
179 161 161
179 161 161
179 161 161
179 161 161
179 161 161
179 161 161
179 161 161
179 161 161
179 161 161
179 161 161
179 161 161
179 161 161
179 161 161
179 161 161
179 161 161
179 161 161
179 161 161
179 161 161
179 161 161
179 161 161
179 161 161
179 161 161
179 161 161
179 161 161
179 161 161
179 161 161
179 161 161
179 161 161
179 161 161
179 161 161
179 161 161
179 161 161
179 161 161
179 161 161
179 161 161
179 161 161
179 161 161
179 161 161
179 161 161
179 161 161
179 161 161
179 161 161
179 161 161
179 161 161
179 161 161
179 161 161
179 161 161
179 161 161
179 161 161
179 161 161
179 161 161
179 161 161
179 161 161
179 161 161
179 161 161
179 161 161
179 161 161
179 161 161
179 161 161
179 161 161
179 161 161
179 161 161
179 161 161
179 161 161
179 161 161
179 161 161
179 161 161
179 161 161
179 161 161
179 161 161
179 161 161
179 161 161
179 161 161
179 161 161
179 161 161
179 161 161
179 161 161
179 161 161
179 161 161
179 161 161
179 161 161
179 161 161
179 161 161
179 161 161
179 161 161
179 161 161
179 161 161
179 161 161
179 161 161
179 161 161
179 161 161
179 161 161
179 161 161
179 161 161
179 161 161
179 161 161
179 161 161
179 161 161
179 161 161
179 161 161
179 161 161
179 161 161
179 161 161
179 161 161
179 161 161
179 161 161
179 161 161
179 161 161
179 161 161
179 161 161
179 161 161
179 161 161
179 161 161
179 161 161
179 161 161
179 161 161
179 161 161
179 161 161
179 161 161
179 161 161
179 161 161
179 161 161
179 161 161
179 161 161
179 161 161
179 161 161
179 161 161
179 161 161
179 161 161
179 161 161
179 161 161
179 161 161
179 161 161
179 161 161
179 161 161
179 161 161
179 161 161
179 161 161
179 161 161
179 161 161
179 161 161
179 161 161
179 161 161
179 161 161
179 161 161
179 161 161
179 161 161
179 161 161
179 161 161
179 161 161
179 161 161
179 161 161
179 161 161
179 161 161
179 161 161
179 161 161
179 161 161
179 161 161
179 161 161
179 161 161
179 161 161
179 161 161
179 161 161
179 161 161
179 161 161
179 161 161
179 161 161
179 161 161
179 161 161
179 161 161
179 161 161
179 161 161
179 161 161
179 161 161
179 161 161
179 161 161
179 161 161
179 161 161
179 161 161
179 161 161
179 161 161
179 161 161
179 161 161
179 161 161
179 161 161
179 161 161
179 161 161
179 161 161
179 161 161
179 161 161
179 161 161
179 161 161
179 161 161
179 161 161
179 161 161
179 161 161
179 161 161
179 161 161
179 161 161
179 161 161
179 161 161
179 161 161
179 161 161
179 161 161
179 161 161
179 161 161
179 161 161
179 161 161
179 161 161
179 161 161
179 161 161
179 161 161
179 161 161
179 161 161
179 161 161
179 161 161
179 161 161
179 161 161
179 161 161
179 161 161
179 161 161
179 161 161
179 161 161
179 161 161
179 161 161
179 161 161
179 161 161
179 161 161
179 161 161
179 161 161
179 161 161
179 161 161
179 161 161
179 161 161
179 161 161
179 161 161
179 161 161
179 161 161
179 161 161
179 161 161
179 161 161
179 161 161
179 161 161
179 161 161
179 161 161
179 161 161
179 161 161
179 161 161
179 161 161
179 161 161
179 161 161
179 161 161
179 161 161
179 161 161
179 161 161
179 161 161
179 161 161
179 161 161
179 161 161
179 161 161
179 161 161
179 161 161
179 161 161
179 161 161
179 161 161
179 161 161
179 161 161
179 161 161
179 161 161
179 161 161
179 161 161
179 161 161
179 161 161
179 161 161
179 161 161
179 161 161
179 161 161
179 161 161
179 161 161
179 161 161
179 161 161
179 161 161
179 161 161
179 161 161
179 161 161
179 161 161
179 161 161
179 161 161
179 161 161
179 161 161
179 161 161
179 161 161
179 161 161
179 161 161
179 161 161
179 161 161
179 161 161
179 161 161
179 161 161
179 161 161
179 161 161
179 161 161
179 161 161
179 161 161
179 161 161
179 161 161
179 161 161
179 161 161
179 161 161
179 161 161
179 161 161
179 161 161
179 161 161
179 161 161
179 161 161
179 161 161
179 161 161
179 161 161
179 161 161
179 161 161
179 161 161
179 161 161
179 161 161
179 161 161
179 161 161
179 161 161
179 161 161
179 161 161
179 161 161
179 161 161
179 161 161
179 161 161
179 161 161
179 161 161
179 161 161
179 161 161
179 161 161
179 161 161
179 161 161
179 161 161
179 161 161
179 161 161
179 161 161
179 161 161
179 161 161
179 161 161
179 161 161
179 161 161
179 161 161
179 161 161
179 161 161
179 161 161
179 161 161
179 161 161
179 161 161
179 161 161
179 161 161
179 161 161
179 161 161
179 161 161
179 161 161
179 161 161
179 161 161
179 161 161
179 161 161
179 161 161
179 161 161
179 161 161
179 161 161
179 161 161
179 161 161
179 161 161
179 161 161
179 161 161
179 161 161
179 161 161
179 161 161
179 161 161
179 161 161
179 161 161
179 161 161
179 161 161
179 161 161
179 161 161
179 161 161
179 161 161
179 161 161
179 161 161
179 161 161
179 161 161
179 161 161
179 161 161
179 161 161
179 161 161
179 161 161
179 161 161
179 161 161
179 161 161
179 161 161
179 161 161
179 161 161
179 161 161
179 161 161
179 161 161
179 161 161
179 161 161
179 161 161
179 161 161
179 161 161
179 161 161
179 161 161
179 161 161
179 161 161
179 161 161
179 161 161
179 161 161
179 161 161
179 161 161
179 161 161
179 161 161
179 161 161
179 161 161
179 161 161
179 161 161
179 161 161
179 161 161
179 161 161
179 161 161
179 161 161
179 161 161
179 161 161
179 161 161
179 161 161
179 161 161
179 161 161
179 161 161
179 161 161
179 161 161
179 161 161
179 161 161
179 161 161
179 161 161
179 161 161
179 161 161
179 161 161
179 161 161
179 161 161
179 161 161
179 161 161
179 161 161
179 161 161
179 161 161
179 161 161
179 161 161
179 161 161
179 161 161
179 161 161
179 161 161
179 161 161
179 161 161
179 161 161
179 161 161
179 161 161
179 161 161
179 161 161
179 161 161
179 161 161
179 161 161
179 161 161
179 161 161
179 161 161
179 161 161
179 161 161
179 161 161
179 161 161
179 161 161
179 161 161
179 161 161
179 161 161
179 161 161
179 161 161
179 161 161
179 161 161
179 161 161
179 161 161
179 161 161
179 161 161
179 161 161
179 161 161
179 161 161
179 161 161
179 161 161
179 161 161
179 161 161
179 161 161
179 161 161
179 161 161
179 161 161
179 161 161
179 161 161
179 161 161
179 161 161
179 161 161
179 161 161
179 161 161
179 161 161
179 161 161
179 161 161
179 161 161
179 161 161
179 161 161
179 161 161
179 161 161
179 161 161
179 161 161
179 161 161
179 161 161
179 161 161
179 161 161
179 161 161
179 161 161
179 161 161
179 161 161
179 161 161
179 161 161
179 161 161
179 161 161
179 161 161
179 161 161
179 161 161
179 161 161
179 161 161
179 161 161
179 161 161
179 161 161
179 161 161
179 161 161
179 161 161
179 161 161
179 161 161
179 161 161
179 161 161
179 161 161
179 161 161
179 161 161
179 161 161
179 161 161
179 161 161
179 161 161
179 161 161
179 161 161
179 161 161
179 161 161
179 161 161
179 161 161
179 161 161
179 161 161
179 161 161
179 161 161
179 161 161
179 161 161
179 161 161
179 161 161
179 161 161
179 161 161
179 161 161
179 161 161
179 161 161
179 161 161
179 161 161
179 161 161
179 161 161
179 161 161
179 161 161
179 161 161
179 161 161
179 161 161
179 161 161
179 161 161
179 161 161
179 161 161
179 161 161
179 161 161
179 161 161
179 161 161
179 161 161
179 161 161
179 161 161
179 161 161
179 161 161
179 161 161
179 161 161
179 161 161
179 161 161
179 161 161
179 161 161
179 161 161
179 161 161
179 161 161
179 161 161
179 161 161
179 161 161
179 161 161
179 161 161
179 161 161
179 161 161
179 161 161
179 161 161
179 161 161
179 161 161
179 161 161
179 161 161
179 161 161
179 161 161
179 161 161
179 161 161
179 161 161
179 161 161
179 161 161
179 161 161
179 161 161
179 161 161
179 161 161
179 161 161
